X:330
T:the Irish Washerwoman
A:Wyresdale, Lancashire
B:E and J Winder, 1835-41
L:1/8
M:6/8
N:"A good tune"
O:England
Z:Richard Robinson 
%%TUNEURL: http://www.leeds.ac.uk/music/Info/RRTuneBk/gettune/00000eb9.html
%%ID:00000eb9
K:G
d/c/ | \
BGG DGG | BGB dcB | cAA FAA | cBc edc |\
BGG DGG | BGB dcB | cBc Adc | BGG G2 ::
g/a/ |\
bgg cgg | bgb c'af | afd dfd | fdf agf | \
egg dgg | cgg Bgg  | cBc Adc | BGG G2 ::
